X:1
T:The Japanese Girl
T:Music by Vincent, Charles John Mus. Doc. Oxon.
T:Libretto by Jeanie Quinton Rosse
T:The Japanese Girl
T:Act I, No.1 Overture
T:An Operetta in Two Acts for Women's Voices
T:Studio KonKon, IMSLP#162133 Public Domain © comp.1899, pub.1912
T:Studio KonKon, IMSLP#162133 Public Domain © comp.1899, pub.1912
T:Studio KonKon, IMSLP#162133 Public Domain © comp.1899, pub.1912
T:Studio KonKon, IMSLP#162133 Public Domain © comp.1899, pub.1912
C:Music by
C:Vincent, Charles John
C:Mus. Doc. Oxon.
Z:Libretto by
Z:Jeanie Quinton Rosse
Z:Studio KonKon, IMSLP#162133
Z:Public Domain © comp.1899, pub.1912
%%score { ( 1 3 5 ) | ( 2 4 ) }
L:1/8
Q:1/4=84
M:4/4
K:F
V:1 treble nm="Piano" snm="Pno."
V:3 treble 
V:5 treble 
V:2 bass 
V:4 bass 
V:1
!p!"^Largetto""_Horns" C4 A3 F |!>(! G8!>)! | %2
"^Wood Wind""^lento"[Q:1/4=60]!<(! [Bc] [Bd]2 [Bd]!<)!"_rit."!>(! (f2 e2)!>)! | %3
"_Horns"[Q:1/4=84]"^a tempo" C4 A3 F |!>(! z8!>)! | %5
"^lento"[Q:1/4=60]"^Wood Wind" [ce] [cf]2!<(! [cf]!<)!"_rit."!>(! (a2 g2)!>)! | %6
"_Cadenza ad lib.""^rit." (144:32:2([eb-]4[Q:1/4=23]"^23" b/(144:32:9a/c'/b/ g/^f/a/g/ e/^d/(144:32:9f/e/[Q:1/4=21]"^21" c/=B/=d/c/ _B/G/B/(144:32:7=F/ B/E/B/=D/[Q:1/4=23]"^23" BC[Q:1/4=60]"^60" !fermata!c3 B) | %7
!mp![Q:1/4=132]"^Allegro" .[EA] !^![EG]2!<(! .[E^F] .[EG].[EA].[EB].[E=B] | %8
 .[=Fd]!<)! !^![Fc]2!p! .[F=B]!<(! .[Fc].[Fd].[Fe]!<)!.[F=f] | %9
!f! [_Bf] !^![Be]2 [Bg] [Be] !^![Bd]2 [Bf] | d!>)!!>(!cd[GB] (([GB]2 [FA]2)) | %11
!p! [EA] !^![EG]2 [E^F]!<(! [EG][EA][EB][E=B] | [=Fd]!<)! !^![Fc]2!p! [F=B]!<(! [Fc][Fd][Fe][Ff] | %13
 [Gce]!<)!!f! !^![Gcg]2 [ceg] [c_e^f] !^![cea]2 [cea] | %14
 [d=fg] !^![dfg=b]2 [dfgb] [c=egc']>(c'b>)(c' | d'>)(c'_b>)(g ^f>)(ga>)g | %16
 (g>=f e/g/f/d/) (d2 c2) | (B>E ^D/E/G/B/ =d2 c2) | (c>A ^G/A/c/f/ =g2 f2) | %19
 b>(ba>)(g f>)(e^d>)(e | g>)(f e/d/^c/d/ e2 d2) | (=c>G ^F/G/c/d/ _e>c =B/c/e/^f/ | %22
 g>^f g/a/=b/c'/ .d') z z2 |!p! G[GA][G=B][Gc]!<(! [GB][Gc][Gd][Gc] | %24
 [G=B][Gc][G^c]!<)![Gd] [Ge][Gd] [Gg]2 |!p! g8 |!<(! g6!<)! g2 |!mp! !^!G=cde !^!c>deg | %28
 !^!cdea !^!e>a=bc' |!f! e'>d'c'a ^fdcA | G !^![Gg]2 !^![Gg]2 !^![Gg]2 !^![Gg] | %31
!p! g[ga][g=b][gc'] [gb][gc'][gd'][gc'] |!<(! [g=b][gc'][g^c'][gd'] [ge'][gd']!<)! [gg']2 |!p! g8 | %34
!<(! g6!<)! g2 | g>edc!<(! =Bcde | fga=b c'bc'!<)!d' |!f! e'>(c'a)(g d'>)(=ba)(g | %38
 c'>)(ag)(e a>)(ge)d |"^rit." c8 | [EGc]2!<(! [Gce]2 [cea]2 [eac']2!<)! | %41
 !fermata![eac'e']6!p![Q:1/4=84]"^Maestoso\n\n" (3CCC | E4 C4 || %43
[K:E] =B,2 [B,^DB]2 [CEB]2 [^^C^EB]2 | [DFB]2 (3BBB B2 B2 | B4 g3!<(! e | b2 (3bbb b2!<)! b2 | %47
 b4 b4 |!ff![Q:1/4=96] [=degb]4 [dgc']2 [deg]2 | [=degb]4 [cea]2 [Bc^eg]2 | %50
 [Af]2 [Bfg][cfa] [Fcf]2 [Fce]2 | [FBd]6 [Bdf]2 | [Beb]2 [Bdab]2 [=dgb=d']2 [cgc']2 | %53
 [B^eg]2 [=degb]2 [cfa]2 [cf]2 | [B=egb]2 ge [ce]2 [B^d]2 | [GBe]2 (3eee!>(! e4!>)! || %56
[K:F]"_p  lento   rit."[Q:1/4=84]"^Largetto""^rit." [_B=c] [Bd]2 [Bd] (f2 e2) | %57
[Q:1/4=84]"_a tempo" C4 A3 F |!>(! c8!>)! |"^rit." [ce]"_lento  rit." [cf]2 [cf] (a2 g2) | %60
"_ad lib.""^rit." (144:32:2([eb-]4[Q:1/4=23]"^23" b/(144:32:9a/c'/b/ g/^f/a/g/ e/^d/(144:32:9f/e/[Q:1/4=21]"^21" c/=B/=d/c/ _B/G/B/(144:32:7=F/ B/E/B/=D/[Q:1/4=23]"^23" BC[Q:1/4=60]"^60" !fermata!c3 B) | %61
!p![Q:1/4=132]"^Allegro" [EA] !^![EG]2!<(! [E^F] [EG][EA][EB][E=B] | %62
 [=Fd]!<)! !^![Fc]2 [F=B]!<(! [Fc][Fd][Fe]!<)![Ff] | [Bf] !^![Be]2 [Bg] [Be] !^![Bd]2 [Bf] | %64
 d!>(!cdB (B2!>)! A2) |!p! [EA] !^![EG]2 [E^F]!<(! [EG][EA][EB][E=B] | %66
 [=Fd]!<)! !^![Fc]2!p! [F=B]!<(! [Fc][Fd][Fe][F=f] | %67
 [Gce]!<)! !^![Gcg]2 [ceg]"_cresc."!<(! [c_e^f] !^![cea]2 [cea] | %68
 [d=fg]!<)!!f! !^![dfg=b]2 [dfgb] [c=egc']>(c'b>)(c' |!f! d'>)(c'b>)(g ^f>)(ga>)g | %70
 (g>f e/g/f/d/) (d2 c2) | (B>E ^D/E/G/B/ =d2 c2) | (c>A ^G/A/c/f/ =g2 f2) | d'>(c'b)g ^f2 g2 || %74
[M:6/8][Q:3/8=88]"^L'istesso tempo"[Q:1/4=160] [fa]3 [gc']3 |"^rit." [ad'f']3 [gc']3 | %76
 [cfa]3 [cec']3 | [cf]3 [ceg]3 | [cfa]3 [cgc']3 | [_A_df]3 [A_e_a]3 | [FB_d]3 [Bc=e]3 | %81
[Q:1/4=160] [=Acf]2 z z2 z | z2 z z fg | abc' [ad']2 (a | [gc']2) (g [fb]2) f | [ea]2 e [dg]fd | %86
 c2 z z (=Bc | [G_Bd]3) [GBe]3 | (fga) (agf | e2) (g d2) (g | c2) (d efg | abc' [ad']2) (a | %92
 [gc']2) (g [fb]2) (f | [ea]2) (e [dg]fd | c2) z z (=Bc | [G_Bd]3) [GBe]3 | fga bc'd' | %97
 [fac']2 z [Be]2 z | [Af]2 z [Ad^f]2 z |!<(! [Gdg]2 z [^Gd^g]2 z!<)! | [cfa]2 z [Acf]2 z | %101
 [GBf]2 z!<(! [GBe]2 z | [FAf]3 [Ad^f]3!<)! | [Gdg]3 [^Gd=f^g]3 | [cfa]2 z [Acf]2 z | %105
 [GBcf]2 z [GBce]2 z |!ff! [FAcf]2 !^![cc'] !^![cc']3- | [cfac']2 [cc'] [cc']3- | %108
 [cfac']2 [cc'] [cc']3- | [cfac']3 [cegc']3 | [fac'f']3 [fac'f']3 | [fac']3 [cfa]3 | [Acf]3 z3 | %113
 [cfa]3 z3 | (!//-![cf]3 A3 | !//-![cf]3 A3) | [Acf]3- [Acf]2 z |] %117
V:2
 C,4 A,3 F, | G,8 | [CE] [CF]2 [CF] A2 G2 | C,4 A,3 F, | C8 | [CB] [DB]2 [DB] B4 | %6
 [CGc]4 !fermata!z4 |[K:bass] .[B,C] !^![B,C]2 .[B,C] .[B,C].[B,C].[B,C].[B,C] | %8
 .[A,C] !^![A,C]2 .[A,C] .[A,C].[A,C].[A,C].[A,C] | [G,C] !^![G,C]2 [G,C] [F,C] !^![F,C]2 [F,C] | %10
 [E,C] [E,C]2 [E,C] [F,C]2 [F,C]2 | [B,C] !^![B,C]2 [B,C] [B,C][B,C][B,C][B,C] | %12
 [A,C] !^![A,C]2 [A,C] [A,C][A,C][A,C][A,C] | [G,CE] !^![G,CE]2 [G,CE] [G,C_E] !^![G,CE]2 [G,CE] | %14
 [G,=B,DF] !^![G,B,DF]2 [G,B,DF] [C=E] z z2 | %15
"_* The Overture may be omitted, if desired." C, [G,B,CE]2 [G,B,CE] E, [G,B,C]2 [G,B,C] | %16
 F, [A,C]2 [A,C] A, [CF]2 [CF] | G, [B,C]2 [B,C] C, [B,C]2 [B,C] | F, [A,C]2 [A,C] A, [CF]2 [CF] | %19
 E, [G,B,^C]2 [G,B,C] ^C, [G,B,]2 [G,B,] | D, [F,A,]2 [F,A,] F, [A,D]2 [A,D] | %21
 G, [CE]2 [CE] G, [C_E^F]2 [CEF] | G, [=B,D=F]2 [B,DF] G, [B,D]2 [B,D] | %23
 [CE][CE][CE][CE] [CE][CE][CE][CE] | [CDF][CDF][CDF][CDF] [CDF][CDF][CDF][CDF] | %25
 [CE][CE][CE][CE] [CE][CE][CE][CE] | [CDF][CDF][CDF][CDF] [CDF][CDF][CDF][CDF] | %27
 !>![CE][CE][CE][CE] !>![=B,CE][B,CE][B,CE][B,CE] | %28
 !>![A,C][A,C][A,C][A,C] !>![G,A,C][G,A,C][G,A,C][G,A,C] | %29
 [^F,A,CD][F,A,CD][F,A,CD][F,A,CD] [F,A,CD][F,A,CD][F,A,CD][F,A,CD] | %30
 [G,=B,D]2 [G,C_E]2 [G,^C=E]2 [G,DF]2 | [=CE][CE][CE][CE] [CE][CE][CE][CE] | %32
 [CDF][CDF][CDF][CDF] [CDF][CDF][CDF][CDF] | [CE][CE][CE][CE] [CE][CE][CE][CE] | %34
 [CDF][CDF][CDF][CDF] [CDF][CDF][CDF][CDF] | !>![CE][CE][CE][CE] !>![_B,CE][B,CE][B,CE][B,CE] | %36
 !>![A,CF][A,CF][A,CF][A,CF] !>![_A,CF][A,CF][A,CF][A,CF] | %37
 [G,CE][G,CE][G,CE][G,CE] [G,=B,F][G,B,F][G,B,F][G,B,F] | [CE][CE][CE][CE] [CE][CE][CE][CE] | %39
 C>A,G,E, A,>G,E,D, | C,2 =B,,2 A,,2 G,,2 | !fermata!^F,,6 (3C,C,C, | E,4 C,4 || %43
[K:E] =B,,2 F,2 =G,2 ^G,2 | [A,,A,]2 (3B,B,B, B,2 B,2 | B,4 z4 | z8 | z8 | %48
!ped! [E,,E,]2 (3[B,=DE][B,DE][B,DE] [B,DE]2 [B,DE]2!ped-up! | %49
!ped! [A,,A,]2 (3[A,=DE][A,DE][A,DE] [A,CE]2 [C,C]2!ped-up! | [F,C]4 [A,,A,]2 [^A,,^A,]2 | %51
 [B,,B,]2 [F,,F,]2 [B,,B,]2 [=A,,=A,]2 | [G,,G,]2 [F,,F,]2 [^E,,^E,]4 | [F,,F,]6 [A,,A,]2 | %54
 [B,,B,]4 [B,,B,]4 | [E,B,]2 (3EEE E4 ||[K:F][I:staff -1] [=CE] [CF]2 [CF] A2 G2 | %57
[I:staff +1] C,4 A,3 F, | C8 | [CB] [DB]2 [DB] B4 | [CGc]4 !fermata!z4 | %61
[K:bass] [B,C] !^![B,C]2 [B,C] [B,C][B,C][B,C][B,C] | [A,C] !^![A,C]2 [A,C] [A,C][A,C][A,C][A,C] | %63
 [G,C] !^![G,C]2 [G,C] [F,C] !^![F,C]2 [F,C] | [E,C] [E,C]2 [E,C] [F,C]2 [F,C]2 | %65
 [B,C] !^![B,C]2 [B,C] [B,C][B,C][B,C][B,C] | [A,C] !^![A,C]2 [A,C] [A,C][A,C][A,C][A,C] | %67
 [G,CE] !^![G,CE]2 [G,CE] [G,C_E] !^![G,CE]2 [G,CE] | [G,=B,DF] !^![G,B,DF]2 [G,B,DF] [C=E] z z2 | %69
 C, [G,B,CE]2 [G,B,CE] E, [G,B,C]2 [G,B,C] | F, [A,C]2 [A,C] A, [CF]2 [CF] | %71
 G, [B,C]2 [B,C] C, [B,C]2 [B,C] | F, [A,C]2 [A,C] C, [A,C]2 [A,C] | %73
 G, [B,CE]2 [B,CE] C, [G,B,CE]2 [G,B,CE] ||[M:6/8] [F,F]3 [E,E]3 | [D,D]3 [E,E]3 | [F,F]3 [G,G]3 | %77
 [A,A]3 [G,G]3 | [F,F]3 [_E,_E]3 | [_D,_D]3 [C,C]3 | [_B,,_B,]3 [G,,G,]3 | %81
 ([F,,F,]2 [A,C]) (C,2 [A,C]) | (F,2 [A,C]) (C,2 [A,C]) | F,2 [A,C] C,2 [A,C] | %84
 F,2 [A,C] C,2 [A,C] | F,2 [A,C] C,2 [A,C] | F,2 [A,C] C,2 [A,C] | G,2 [B,C] C,2 [B,C] | %88
 F,2 [A,C] D,2 [F,A,D] | G,2 [CE] G,2 [=B,F] | [CE]3 C,2 z | F,2 [A,C] C,2 [A,C] | %92
 F,2 [A,C] C,2 [A,C] | F,2 [A,C] C,2 [A,C] | F,2 [A,C] C,2 [A,C] | G,2 [B,C] C,2 [B,C] | %96
 F,2 [A,C] B,,2 [F,B,D] | [C,C]2 z [^C,^C]2 z | [D,D]2 [_E,_E] [D,D]2 [=C,=C] | %99
 [B,,B,]2 [A,,A,] [B,,B,]2 [=B,,=B,] | [C,C]2 z [C,C]2 z | [C,C]2 z [^C,^C]2 z | %102
 [D,D]2 [_E,_E] [D,D]2 [C,C] | [B,,B,]2 [A,,A,] [B,,B,]2 [B,,B,] | [C,C]2 z [C,C]2 z | %105
 [C,C]2 z [C,C]2 z | [F,C]3- [F,C]2 [C,C] | [F,C]3- [F,C]2 [C,C] | [F,C]3- [F,C]2 [C,C] | %109
 [F,C]3 [C,C]3 | !//-!F,,3 F,3 | !//-!F,,3 F,3 | !//-!F,,3 F,3 | !//-!F,,3 F,3 | !//-!F,,3 F,3 | %115
 !//-!F,,3 F,3 | [F,,F,]3- [F,,F,]2 z |] %117
V:3
 x8 | x8 | x4 B4 | x8 | x8 | x4 c4 | x8 | x8 | x8 | x8 | G G2 x5 | x8 | x8 | x8 | x8 | x8 | x8 | %17
 x8 | x8 | x8 | x8 | x8 | x8 | x8 | x8 | GA=Bc Bcdc | =Bc^cd ed g2 | x8 | x8 | x8 | x8 | x8 | x8 | %33
 GA=Bc Bcdc | =Bc^cd ed g2 | x8 | x8 | x8 | x8 | z [EG][EG][EG] [EG][EG][EG][EG] | x8 | x8 | x8 || %43
[K:E] x8 | x8 | x4 G3 E | B2 (3BBB B2 B2 | B4 B4 | x8 | x8 | x8 | x8 | x8 | x8 | x4 G4 | x8 || %56
[K:F] x4 B4 | x8 | x8 | x4 c4 | x8 | x8 | x8 | x8 | G G2 G F2 F2 | x8 | x8 | x8 | x8 | x8 | x8 | %71
 x8 | x8 | x8 ||[M:6/8] x6 | x6 | x6 | x6 | x6 | x6 | x6 | x6 | x6 | x3 f3 | e3 d3 | c3 B3 | %86
 A2 x4 | x6 | x6 | x6 | x6 | x3 (f3 | e3 d3 | c3 B3) | A2 x4 | x6 | x6 | x6 | x6 | x6 | x6 | x6 | %102
 x6 | x6 | x6 | x6 | x3 z2 [eg] | x3 z2 [eg] | x3 z2 [eg] | x6 | x6 | x6 | x6 | x6 | x6 | x6 | %116
 x6 |] %117
V:4
 x8 | x8 | x4 C4 | x8 | x8 | x4 F2 E2 | x8 |[K:bass] x8 | x8 | x8 | x8 | x8 | x8 | x8 | x8 | x8 | %16
 x8 | x8 | x8 | x8 | x8 | x8 | x8 | x8 | x8 | x8 | x8 | x8 | x8 | x8 | x8 | x8 | x8 | x8 | x8 | %35
 x8 | x8 | x8 | x8 | x8 | x8 | x8 | x8 ||[K:E] x2 B,,6 | x8 | x8 | x8 | x8 | x8 | x8 | x8 | x8 | %52
 x8 | x8 | x8 | x8 ||[K:F] x4[I:staff -1] C4 | x8 | x8 | x4[I:staff +1] F2 E2 | x8 |[K:bass] x8 | %62
 x8 | x8 | x8 | x8 | x8 | x8 | x8 | x8 | x8 | x8 | x8 | x8 ||[M:6/8] x6 | x6 | x6 | x6 | x6 | x6 | %80
 x6 | x6 | x6 | x6 | x6 | x6 | x6 | x6 | x6 | x6 | x6 | x6 | x6 | x6 | x6 | x6 | x6 | x6 | x6 | %99
 x6 | x6 | x6 | x6 | x6 | x6 | x6 | x6 | x6 | x6 | x6 | x6 | x6 | x6 | x6 | x6 | x6 | x6 |] %117
V:5
 x8 | x8 | x8 | x8 | x8 | x8 | x8 | x8 | x8 | x8 | x8 | x8 | x8 | x8 | x8 | x8 | x8 | x8 | x8 | %19
 x8 | x8 | x8 | x8 | x8 | x8 | x8 | x8 | x8 | x8 | x8 | x8 | x8 | x8 | x8 | x8 | x8 | x8 | x8 | %38
 x8 | x8 | x8 | x8 | x8 ||[K:E] x8 | x8 | x8 | x8 | x8 | x8 | x8 | x8 | x8 | x8 | x8 | x4 f3 e | %55
 x8 ||[K:F] x8 | x8 | x8 | x8 | x8 | x8 | x8 | x8 | x8 | x8 | x8 | x8 | x8 | x8 | x8 | x8 | x8 | %73
 x8 ||[M:6/8] x6 | x6 | x6 | x6 | x6 | x6 | x6 | x6 | x6 | x6 | x6 | x6 | x6 | x6 | x6 | x6 | x6 | %91
 x6 | x6 | x6 | x6 | x6 | x6 | x6 | x6 | x6 | x6 | x6 | x6 | x6 | x6 | x6 | x6 | x6 | x6 | x6 | %110
 x6 | x6 | x6 | x6 | x6 | x6 | x6 |] %117

